assets/images/img_bluetooth.svg

<svg width="46" height="37" viewBox="0 0 46 37" fill="none" xmlns="http://www.w3.org/2000/svg">
<path fill-rule="evenodd" clip-rule="evenodd" d="M21.275 0L1.72941 33.9923L3.46589 37H42.5403L44.2737 33.9977L24.725 0H21.275ZM45.9998 36.9997L45.9997 37H46L45.9998 36.9997ZM0 37L5.86128e-05 36.9999L0.000117465 37H0ZM38.5687 32.7679L23 5.69409L7.43128 32.7679H38.5687Z" fill="#FFE142"/>
<path d="M23.0029 11.7578L12.7578 29.6219H33.2452L23.0029 11.7578ZM23.0029 17.5674L28.2266 26.6808H17.7764L23.0029 17.5674Z" fill="#FFE142"/>
</svg>

<svg xmlns="http://www.w3.org/2000/svg" width="46" height="37" fill="none" viewBox="0 0 46 37"><path fill="#FFE142" fill-rule="evenodd" d="M21.275 0 1.729 33.992 3.466 37H42.54l1.734-3.002L24.725 0h-3.45ZM46 37ZM0 37Zm38.569-4.232L23 5.694 7.431 32.768H38.57Z" clip-rule="evenodd"/><path fill="#FFE142" d="M23.003 11.758 12.758 29.622h20.487L23.003 11.758Zm0 5.81 5.224 9.113h-10.45l5.226-9.114Z"/></svg>
